Yaru++/mimetypes/48/application-x-musescore3.svg

<svg height="48" viewBox="0 0 12.699375 12.699376" width="48" xmlns="http://www.w3.org/2000/svg" xmlns:xlink="http://www.w3.org/1999/xlink"><linearGradient id="a" gradientUnits="userSpaceOnUse" x1="6.35007108" x2="6.35007108" y1=".13228552" y2="12.30252024"><stop offset="0" stop-color="#fff"/><stop offset=".125" stop-color="#fff" stop-opacity=".098039"/><stop offset=".92500001" stop-color="#fff" stop-opacity=".098039"/><stop offset="1" stop-color="#fff" stop-opacity=".498039"/></linearGradient><path d="m4.1621983.39685689c-.5881821 0-1.0513178.0135407-1.4323996.0775109-.3810844.06396888-.6929229.18395549-.9213476.41184075-.2284221.22788546-.3489842.53958346-.4123567.92082876-.0633725.3812456-.0757438.8453924-.07286 1.4349839v3.239953 3.2415031c-.00286.5886857.00955 1.0525967.07286 1.4334327.063373.381246.1839346.692944.4123567.920829.2284247.227885.5402632.347873.9213476.411841.3810845.06397.8442175.07751 1.4323996.07751h4.3757445c.5881822 0 1.0510744-.01352 1.4313678-.07751.3802934-.064.6911794-.18439.9187594-.412357.227584-.227967.347434-.539443.411325-.920313.06389-.380867.07751-.844073.07751-1.4334327v-3.2415031-3.2415031c0-.5893606-.01362-1.0525645-.07751-1.4334338-.063891-.3808691-.183741-.6923443-.411325-.92031206-.22758-.22796754-.538466-.34836079-.9187594-.41235744-.3802934-.06399692-.8431856-.07751091-1.4313678-.07751091z" opacity=".1"/><path d="m4.1621983.13228657c-.5880975 0-1.0515929.0141042-1.4323996.0780276-.3812749.06400116-.692825.18385575-.9213476.41184076-.2285623.22802651-.3489577.53890087-.4123567.92031207-.0633143.3808966-.0757438.8449217-.07286 1.4344672v3.2404697 3.2415032c-.00286.5889349.00958 1.0528009.07286 1.4334329.063399.381412.1837917.692285.4123567.920313.2285252.227983.54007.347839.9213476.411841.3808067.06392.8443021.07803 1.4323996.07803h4.3757445c.5880922 0 1.0508336-.01408 1.4308492-.07803.380442-.06402.691478-.183652.919278-.411841.227724-.228107.347405-.539258.411325-.920313.06386-.38069.07751-.844226.07751-1.4334329v-3.2415032-3.2415031c0-.5892071-.01365-1.0527452-.07751-1.4334338-.06392-.3810543-.183601-.69220346-.411325-.92031207-.2278-.22818688-.538836-.34781897-.919278-.41184075-.3800156-.06395009-.842757-.07802761-1.4308492-.07802761z" fill="#1f74bd"/><g fill="#fff"><path d="m1.5878047 6.2174039v3.2415032c-.011456 2.3393379.2397774 2.5790439 2.5743936 2.5790439h4.3757445c2.3346152 0 2.5743932-.23968 2.5743932-2.5790439v-3.2415032z" opacity=".08"/><path d="m6.3500706.39685689v11.64109411h2.1878722c2.3346152 0 2.5743932-.23968 2.5743932-2.5790439v-3.2415032-3.2415031c0-2.33936515-.239778-2.57904391-2.5743932-2.57904391z" opacity=".08"/><path d="m8.3014884 12.402042 2.9431326-2.9431349v1.1028869c-.0026 1.667568-.18653 1.840248-1.8725224 1.840248z" opacity=".204"/><path d="m8.2020549 4.1008413c.1461777 0 .2645783.1183831.2645783.2645706 0 .1461876-.1184006.2645693-.2645783.2645693-.1461645 0-.2645624-.1183817-.2645624-.2645693 0-.1461875.1183979-.2645706.2645624-.2645706z"/><path d="m8.2019861 3.489976c-.548494 0-.8656979.4558864-.8656979.8767024 0 .3156054-.4304004.3156054-.4304771 0 0-.7364304.5682283-1.2975192 1.296175-1.2975192.7279494 0 1.2963284.5610888 1.2963284 1.2975192 0 .3156054-.4317073.3156054-.4317073 0 0-.420816-.3161245-.8767024-.8646211-.8767024z" stroke="#fff" stroke-width=".053199"/><path d="m4.3603139 5.1852775c.4987627 0 .7535465.176425.9514425.4451904.1978827-.2687654.58837-.426648.9518579-.426648.617523 0 1.159109.3900177 1.159109 1.2376947l.01389.571728c0 .8788907.5901876.8859706.8331981.8859706.2430131 0 .8109794-.1597772.8109794-.9099034v-1.5822771c0-.2721717.4179788-.2721717.4179788 0v1.5822771c-.014842.9887985-.742932 1.3185018-1.2289582 1.3185018-.4860237 0-1.2497879-.1770047-1.2497879-1.294569l-.0141281-.6048229c0-.7116912-.5066521-.8144898-.7422917-.8144898-.3711948 0-.7423896.3030563-.7423896.8144898v1.6954336c0 .1130009-.093306.2039583-.2083624.2039583h-.0007937-.0007937c-.1150537 0-.2083782-.090957-.2083782-.2039583v-1.6954336c0-.5114335-.3711737-.8144898-.7423685-.8144898-.3711869 0-.7425166.1923755-.7423076.9481359v1.5617875c0 .1123204-.093314.2039583-.2084338.2039583-.1150537 0-.2083677-.090957-.2083677-.2039583v-1.5617875c0-.9944338.4693213-1.3567883 1.1591091-1.3567883z" stroke="#fff" stroke-width=".05231"/></g><path d="m4.1621983.26457173c-.5859201 0-1.0443173.0144588-1.4106969.0759605-.3663796.06150098-.6470094.17311844-.8495194.37515251-.2025101.2020341-.3142567.48213756-.3751528.84848516-.0608962.3663479-.0741829.8250345-.0713096 1.4122476v3.2409864 3.2415032c-.00286.5869049.010424 1.0455169.07131 1.4117299.060896.366348.17264.646451.3751527.848485s.4831372.313651.8495195.375153c.3663796.0615.8247768.07596 1.4106969.07596h4.3757445c.5859174 0 1.0436082-.01445 1.4091465-.07596s.6457203-.173077.8474523-.375153c.201732-.202073.313212-.482325.374634-.848485.06142-.36616.07545-.824629.07545-1.4117299v-3.2415032-3.2415031c0-.5871009-.01402-1.0455706-.07545-1.4117309-.061422-.3661603-.172902-.64641086-.374634-.84848516-.201732-.20207429-.481914-.31363856-.8474527-.37515249-.3655383-.06151366-.8232291-.07596052-1.4091465-.07596052z" fill="none" opacity=".4" stroke="url(#a)" stroke-width=".26457"/></svg>

<?xml version="1.0" encoding="UTF-8" standalone="no"?>
<svg
   xmlns:dc="http://purl.org/dc/elements/1.1/"
   xmlns:cc="http://creativecommons.org/ns#"
   xmlns:rdf="http://www.w3.org/1999/02/22-rdf-syntax-ns#"
   xmlns:svg="http://www.w3.org/2000/svg"
   xmlns="http://www.w3.org/2000/svg"
   xmlns:xlink="http://www.w3.org/1999/xlink"
   xmlns:sodipodi="http://sodipodi.sourceforge.net/DTD/sodipodi-0.dtd"
   xmlns:inkscape="http://www.inkscape.org/namespaces/inkscape"
   height="48"
   viewBox="0 0 12.699375 12.699376"
   width="48"
   version="1.1"
   id="svg30"
   sodipodi:docname="application-x-musescore348.svg"
   inkscape:version="0.92.5 (2060ec1f9f, 2020-04-08)">
  <metadata
     id="metadata36">
    <rdf:RDF>
      <cc:Work
         rdf:about="">
        <dc:format>image/svg+xml</dc:format>
        <dc:type
           rdf:resource="http://purl.org/dc/dcmitype/StillImage" />
        <dc:title></dc:title>
      </cc:Work>
    </rdf:RDF>
  </metadata>
  <defs
     id="defs34">
    <linearGradient
       gradientTransform="matrix(0.26457032,0,0,0.26457032,-84.662119,-16.006504)"
       gradientUnits="userSpaceOnUse"
       y2="107"
       x2="344"
       y1="61"
       x1="344"
       id="linearGradient923"
       xlink:href="#linearGradient927"
       inkscape:collect="always" />
    <linearGradient
       id="linearGradient927"
       inkscape:collect="always">
      <stop
         id="stop923"
         offset="0"
         style="stop-color:#ffffff;stop-opacity:1;" />
      <stop
         style="stop-color:#ffffff;stop-opacity:0.09803922"
         offset="0.125"
         id="stop933" />
      <stop
         style="stop-color:#ffffff;stop-opacity:0.09803922"
         offset="0.92500001"
         id="stop931" />
      <stop
         id="stop925"
         offset="1"
         style="stop-color:#ffffff;stop-opacity:0.49803922" />
    </linearGradient>
  </defs>
  <sodipodi:namedview
     pagecolor="#ffffff"
     bordercolor="#666666"
     borderopacity="1"
     objecttolerance="10"
     gridtolerance="10"
     guidetolerance="10"
     inkscape:pageopacity="0"
     inkscape:pageshadow="2"
     inkscape:window-width="773"
     inkscape:window-height="480"
     id="namedview32"
     showgrid="false"
     inkscape:zoom="4.9166667"
     inkscape:cx="26.751535"
     inkscape:cy="24"
     inkscape:window-x="0"
     inkscape:window-y="27"
     inkscape:window-maximized="0"
     inkscape:current-layer="svg30" />
  <linearGradient
     id="a"
     gradientUnits="userSpaceOnUse"
     x1="6.35007308"
     x2="6.35007308"
     y1=".13228652"
     y2="12.30252124">
    <stop
       offset="0"
       stop-color="#fff"
       id="stop2" />
    <stop
       offset=".125"
       stop-color="#fff"
       stop-opacity=".098039"
       id="stop4" />
    <stop
       offset=".92500001"
       stop-color="#fff"
       stop-opacity=".098039"
       id="stop6" />
    <stop
       offset="1"
       stop-color="#fff"
       stop-opacity=".498039"
       id="stop8" />
  </linearGradient>
  <linearGradient
     id="b"
     gradientTransform="matrix(0 -.02997086 -.02997 0 15.739289 13.625373)"
     gradientUnits="userSpaceOnUse"
     x1="512"
     x2="-.000001"
     y1="397.99393"
     y2="125.99394">
    <stop
       offset="0"
       stop-color="#da1636"
       id="stop11" />
    <stop
       offset="1"
       stop-color="#f22c42"
       id="stop13" />
  </linearGradient>
  <path
     sodipodi:nodetypes="sccsccccccsscccscsccsss"
     inkscape:connector-curvature="0"
     id="path1020"
     d="m 4.1621983,0.39685689 c -0.5881821,0 -1.0513178,0.0135407 -1.4323996,0.0775109 C 2.3487143,0.53833667 2.0368758,0.65832328 1.8084511,0.88620854 1.580029,1.114094 1.4594669,1.425792 1.3960944,1.8070373 1.3327219,2.1882829 1.3203506,2.6524297 1.3232344,3.2420212 v 3.239953 3.2415031 c -0.00286,0.5886857 0.00955,1.0525967 0.07286,1.4334327 0.063373,0.381246 0.1839346,0.692944 0.4123567,0.920829 0.2284247,0.227885 0.5402632,0.347873 0.9213476,0.411841 0.3810845,0.06397 0.8442175,0.07751 1.4323996,0.07751 h 4.3757445 c 0.5881822,0 1.0510744,-0.01352 1.4313678,-0.07751 0.3802934,-0.064 0.6911794,-0.18439 0.9187594,-0.412357 0.227584,-0.227967 0.347434,-0.539443 0.411325,-0.920313 0.06389,-0.380867 0.07751,-0.844073 0.07751,-1.4334327 V 6.4819742 3.2404711 c 0,-0.5893606 -0.01362,-1.0525645 -0.07751,-1.4334338 C 11.235504,1.4261682 11.115654,1.114693 10.88807,0.88672524 10.66049,0.6587577 10.349604,0.53836445 9.9693106,0.4743678 9.5890172,0.41037088 9.126125,0.39685689 8.5379428,0.39685689 Z"
     style="color:#000000;font-style:normal;font-variant:normal;font-weight:normal;font-stretch:normal;font-size:medium;line-height:normal;font-family:sans-serif;font-variant-ligatures:normal;font-variant-position:normal;font-variant-caps:normal;font-variant-numeric:normal;font-variant-alternates:normal;font-feature-settings:normal;text-indent:0;text-align:start;text-decoration:none;text-decoration-line:none;text-decoration-style:solid;text-decoration-color:#000000;letter-spacing:normal;word-spacing:normal;text-transform:none;writing-mode:lr-tb;direction:ltr;text-orientation:mixed;dominant-baseline:auto;baseline-shift:baseline;text-anchor:start;white-space:normal;shape-padding:0;clip-rule:nonzero;display:inline;overflow:visible;visibility:visible;opacity:0.1;isolation:auto;mix-blend-mode:normal;color-interpolation:sRGB;color-interpolation-filters:linearRGB;solid-color:#000000;solid-opacity:1;vector-effect:none;fill:#000000;fill-opacity:1;fill-rule:nonzero;stroke:none;stroke-width:0.52914065;stroke-linecap:butt;stroke-linejoin:miter;stroke-miterlimit:4;stroke-dasharray:none;stroke-dashoffset:0;stroke-opacity:1;marker:none;color-rendering:auto;image-rendering:auto;shape-rendering:auto;text-rendering:auto;enable-background:accumulate" />
  <path
     id="path949"
     d="m 4.1621983,0.13228657 c -0.5880975,0 -1.0515929,0.0141042 -1.4323996,0.0780276 C 2.3485238,0.27431533 2.0369737,0.39416992 1.8084511,0.62215493 1.5798888,0.85018144 1.4594934,1.1610558 1.3960944,1.542467 1.3327801,1.9233636 1.3203506,2.3873887 1.3232344,2.9769342 v 3.2404697 3.2415032 c -0.00286,0.5889349 0.00958,1.0528009 0.07286,1.4334329 0.063399,0.381412 0.1837917,0.692285 0.4123567,0.920313 0.2285252,0.227983 0.54007,0.347839 0.9213476,0.411841 0.3808067,0.06392 0.8443021,0.07803 1.4323996,0.07803 h 4.3757445 c 0.5880922,0 1.0508336,-0.01408 1.4308492,-0.07803 0.380442,-0.06402 0.691478,-0.183652 0.919278,-0.411841 0.227724,-0.228107 0.347405,-0.539258 0.411325,-0.920313 0.06386,-0.38069 0.07751,-0.844226 0.07751,-1.4334329 V 6.2174039 2.9759008 c 0,-0.5892071 -0.01365,-1.0527452 -0.07751,-1.4334338 C 11.235475,1.1614127 11.115794,0.85026354 10.88807,0.62215493 10.66027,0.39396805 10.349234,0.27433596 9.968792,0.21031418 9.5887764,0.14636409 9.126035,0.13228657 8.5379428,0.13228657 Z"
     style="color:#000000;display:inline;overflow:visible;visibility:visible;fill:#1f74bd;fill-opacity:1;fill-rule:nonzero;stroke:none;stroke-width:0.26457033;marker:none;enable-background:accumulate"
     inkscape:connector-curvature="0" />
  <path
     inkscape:connector-curvature="0"
     id="path1006"
     d="m 1.5878047,6.2174039 v 3.2415032 c -0.011456,2.3393379 0.2397774,2.5790439 2.5743936,2.5790439 h 4.3757445 c 2.3346152,0 2.5743932,-0.23968 2.5743932,-2.5790439 V 6.2174039 Z"
     style="color:#000000;display:inline;overflow:visible;visibility:visible;opacity:0.07999998;fill:#ffffff;fill-opacity:1;fill-rule:nonzero;stroke:none;stroke-width:0.26457033;marker:none;enable-background:accumulate" />
  <path
     inkscape:connector-curvature="0"
     id="path1013"
     d="M 6.3500706,0.39685689 V 12.037951 h 2.1878722 c 2.3346152,0 2.5743932,-0.23968 2.5743932,-2.5790439 V 6.2174039 2.9759008 c 0,-2.33936515 -0.239778,-2.57904391 -2.5743932,-2.57904391 z"
     style="color:#000000;display:inline;overflow:visible;visibility:visible;opacity:0.07999998;fill:#ffffff;fill-opacity:1;fill-rule:nonzero;stroke:none;stroke-width:0.26457033;marker:none;enable-background:accumulate" />
  <path
     sodipodi:nodetypes="cccsc"
     inkscape:connector-curvature="0"
     id="path4254-3"
     d="M 8.3014884,12.402042 11.244621,9.4589071 v 1.1028869 c -0.0026,1.667568 -0.18653,1.840248 -1.8725224,1.840248 z"
     style="color:#000000;display:inline;overflow:visible;visibility:visible;opacity:0.20400002;fill:#ffffff;fill-opacity:1;fill-rule:nonzero;stroke:none;stroke-width:0.39241812;stroke-linecap:butt;stroke-linejoin:miter;stroke-miterlimit:4;stroke-dasharray:none;stroke-dashoffset:0;stroke-opacity:1;marker:none;enable-background:accumulate" />
  <path
     inkscape:connector-curvature="0"
     id="path1195"
     d="m 8.2020549,4.1008413 c 0.1461777,0 0.2645783,0.1183831 0.2645783,0.2645706 0,0.1461876 -0.1184006,0.2645693 -0.2645783,0.2645693 -0.1461645,0 -0.2645624,-0.1183817 -0.2645624,-0.2645693 0,-0.1461875 0.1183979,-0.2645706 0.2645624,-0.2645706 z"
     style="display:inline;fill:#ffffff;fill-opacity:1;stroke:none;stroke-width:0.12802637;stroke-miterlimit:4;stroke-dasharray:none;enable-background:new" />
  <path
     inkscape:connector-curvature="0"
     id="path1193"
     d="m 8.2019861,3.489976 c -0.548494,0 -0.8656979,0.4558864 -0.8656979,0.8767024 0,0.3156054 -0.4304004,0.3156054 -0.4304771,0 0,-0.7364304 0.5682283,-1.2975192 1.296175,-1.2975192 0.7279494,0 1.2963284,0.5610888 1.2963284,1.2975192 0,0.3156054 -0.4317073,0.3156054 -0.4317073,0 0,-0.420816 -0.3161245,-0.8767024 -0.8646211,-0.8767024 z"
     style="display:inline;fill:#ffffff;fill-opacity:1;stroke:#ffffff;stroke-width:0.05319874;stroke-miterlimit:4;stroke-dasharray:none;enable-background:new" />
  <path
     inkscape:connector-curvature="0"
     id="path2-3"
     d="m 4.3603139,5.1852775 c 0.4987627,0 0.7535465,0.176425 0.9514425,0.4451904 0.1978827,-0.2687654 0.58837,-0.426648 0.9518579,-0.426648 0.617523,0 1.159109,0.3900177 1.159109,1.2376947 l 0.01389,0.571728 c 0,0.8788907 0.5901876,0.8859706 0.8331981,0.8859706 0.2430131,0 0.8109794,-0.1597772 0.8109794,-0.9099034 V 5.4070327 c 0,-0.2721717 0.4179788,-0.2721717 0.4179788,0 v 1.5822771 c -0.014842,0.9887985 -0.742932,1.3185018 -1.2289582,1.3185018 -0.4860237,0 -1.2497879,-0.1770047 -1.2497879,-1.294569 L 7.0058954,6.4084197 c 0,-0.7116912 -0.5066521,-0.8144898 -0.7422917,-0.8144898 -0.3711948,0 -0.7423896,0.3030563 -0.7423896,0.8144898 v 1.6954336 c 0,0.1130009 -0.093306,0.2039583 -0.2083624,0.2039583 H 5.312058 5.3112643 c -0.1150537,0 -0.2083782,-0.090957 -0.2083782,-0.2039583 V 6.4084197 c 0,-0.5114335 -0.3711737,-0.8144898 -0.7423685,-0.8144898 -0.3711869,0 -0.7425166,0.1923755 -0.7423076,0.9481359 v 1.5617875 c 0,0.1123204 -0.093314,0.2039583 -0.2084338,0.2039583 -0.1150537,0 -0.2083677,-0.090957 -0.2083677,-0.2039583 V 6.5420658 c 0,-0.9944338 0.4693213,-1.3567883 1.1591091,-1.3567883 z"
     style="display:inline;fill:#ffffff;fill-opacity:1;stroke:#ffffff;stroke-width:0.05230979;stroke-miterlimit:4;stroke-dasharray:none;enable-background:new" />
  <path
     inkscape:connector-curvature="0"
     style="color:#000000;display:inline;overflow:visible;visibility:visible;opacity:0.4;fill:none;fill-opacity:1;fill-rule:nonzero;stroke:url(#linearGradient923);stroke-width:0.26457033;stroke-opacity:1;marker:none;enable-background:accumulate"
     d="m 4.1621983,0.26457173 c -0.5859201,0 -1.0443173,0.0144588 -1.4106969,0.0759605 C 2.3851218,0.40203321 2.104492,0.51365067 1.901982,0.71568474 1.6994719,0.91771884 1.5877253,1.1978223 1.5268292,1.5641699 1.465933,1.9305178 1.4526463,2.3892044 1.4555196,2.9764175 v 3.2409864 3.2415032 c -0.00286,0.5869049 0.010424,1.0455169 0.07131,1.4117299 0.060896,0.366348 0.17264,0.646451 0.3751527,0.848485 0.2025127,0.202034 0.4831372,0.313651 0.8495195,0.375153 0.3663796,0.0615 0.8247768,0.07596 1.4106969,0.07596 h 4.3757445 c 0.5859174,0 1.0436082,-0.01445 1.4091465,-0.07596 0.3655383,-0.06151 0.6457203,-0.173077 0.8474523,-0.375153 0.201732,-0.202073 0.313212,-0.482325 0.374634,-0.848485 0.06142,-0.36616 0.07545,-0.824629 0.07545,-1.4117299 V 6.2174039 2.9759008 c 0,-0.5871009 -0.01402,-1.0455706 -0.07545,-1.4117309 C 11.107754,1.1980096 10.996274,0.91775904 10.794542,0.71568474 10.59281,0.51361045 10.312628,0.40204618 9.9470893,0.34053225 9.581551,0.27901859 9.1238602,0.26457173 8.5379428,0.26457173 Z"
     id="path901" />
</svg>
